app/dist/common/images/lixil.svg

<svg height="18" width="18" xmlns="http://www.w3.org/2000/svg"><path d="m0 0h18v18h-18z" fill="#f0f3fa"/><path d="m11 7.1-1.27 1.74a.27.27 0 0 0 0 .3l1.27 1.76-.81.59-1.19-1.63-1.19 1.64-.81-.6 1.27-1.75a.26.26 0 0 0 0-.3l-1.27-1.75.81-.59 1.19 1.63 1.19-1.64zm-7.8 2.9c-.1 0-.2-.06-.2-.18v-2.82h-1v3.02c0 .54.4.98.9.98h1.1v-1zm12 0c-.1 0-.2-.06-.2-.18v-2.82h-1v3.02c0 .54.4.98.9.98h1.1v-1zm-10.2-3h1v4h-1zm8 0h-1v4h1z" fill="#e75400"/></svg>

<!-- by TradingView --><svg xmlns="http://www.w3.org/2000/svg" width="18" height="18"><path fill="#F0F3FA" d="M0 0h18v18H0z"/><path d="M11 7.1L9.73 8.84a.27.27 0 000 .3L11 10.9l-.81.59L9 9.86 7.81 11.5 7 10.9l1.27-1.75a.26.26 0 000-.3L7 7.1l.81-.59L9 8.14l1.19-1.64.81.6zM3.2 10c-.1 0-.2-.06-.2-.18V7H2v3.02c0 .54.4.98.9.98H4v-1h-.8zm12 0c-.1 0-.2-.06-.2-.18V7h-1v3.02c0 .54.4.98.9.98H16v-1h-.8zM5 7h1v4H5V7zm8 0h-1v4h1V7z" fill="#E75400"/></svg>
